X:1
T:Title
%%score { 1 | ( 2 3 4 ) }
L:1/8
Q:1/4=78
M:6/8
K:G
V:1 treble nm="Grand Piano"
V:2 bass 
V:3 bass 
V:4 bass 
V:1
 [DB][DB][DB] [EA][EG][CE] | [B,D][DG]A B3 | BAG dcB | AE[^CB] [DA]3 | [DB][DB][DB] [EA][EG][CE] | %5
w: W.~J.~Kirkpatrick * * * * *|||||
 [B,D][DG]A B3 | dde dBG | .[CFA]3 [B,G]3 | ddd d^cd | e3 .d3 | BBB BAG | .[DGB]3 .[DFA]3 | %12
w: |||||||
 [B,EG][B,EG][B,EG] [DA][DG]D |[M:7/8] E3 [Ge]3 z |[M:13/16] [Gd][B,GB][B,G][DGB][DGB]3/2[CFA] | %15
w: |||
[M:3/4] [B,DG]6 |] %16
w: |
V:2
 [G,,G,][G,,G,][G,,G,] [C,G,][C,G,][C,G,] | [G,,G,][B,,G,][D,F,D] [G,D]3 | %2
 [G,D][G,CD][G,B,D] [F,A,D][F,A,D][G,D] | [E,G,^C][E,A,C][A,,G,] [D,F,]3 | %4
 [G,,G,][G,,G,][G,,G,] [C,G,][C,G,][C,G,] | [G,,G,][B,,G,][D,F,D][K:treble] [G,D]3 | %6
 [G,B,G][G,B,G][G,_B,G] [G,=B,G][G,DG][K:bass][G,B,D] | z[K:treble] EF[K:bass] G,,3 | %8
 [G,B,G][G,B,G][G,B,G] [G,B,G][G,_B,G][G,=B,G] | [CG]3 .[G,B,G]3 | %10
 [G,DG][G,DG][G,DG] [G,DG][K:bass][F,D][E,^CE] | z[K:treble] D2[K:bass] z3 | %12
 E,E,E, [B,,G,][B,,G,][B,,G,] |[M:7/8] [C,G,C]3 [C,C]3 z |[M:13/16] [D,B,]D,E,D,D,3/2D, | %15
[M:3/4] G,,6 |] %16
V:3
 x6 | x6 | x6 | x6 | x6 | x3[K:treble] x3 | x5[K:bass] x | D,3[K:treble][K:bass] z3 | x6 | x6 | %10
 x4[K:bass] x2 | z2[K:treble] G[K:bass] .D,3 | x6 |[M:7/8] x7 |[M:13/16] x13/2 |[M:3/4] x6 |] %16
V:4
 x6 | x6 | x6 | x6 | x6 | x3[K:treble] x3 | x5[K:bass] x | x[K:treble] x2[K:bass] x3 | x6 | x6 | %10
 x4[K:bass] x2 | D,3[K:treble][K:bass] z3 | x6 |[M:7/8] x7 |[M:13/16] x13/2 |[M:3/4] x6 |] %16

